svgs/solid/mask.svg

<svg xmlns="http://www.w3.org/2000/svg" viewBox="0 0 576 512"><!-- Font Awesome Pro 6.0.0-alpha2 by @fontawesome - https://fontawesome.com License - https://fontawesome.com/license (Commercial License) --><path d="M288 64C39.52 64 0 182.096 0 273.455C0 379.492 78.799 448 176 448C203.328 448 227.207 441.484 242.107 411.205L262.033 370.709C268.299 358.576 278.1 352.447 288 352.076C297.9 352.447 307.701 358.576 313.967 370.709L333.893 411.205C348.795 441.484 372.674 448 400 448C497.201 448 576 379.492 576 273.455C576 182.096 536.48 64 288 64ZM160 320C124.654 320 96 291.346 96 256S124.654 192 160 192C195.348 192 224 220.654 224 256S195.348 320 160 320ZM416 320C380.654 320 352 291.346 352 256S380.654 192 416 192C451.348 192 480 220.654 480 256S451.348 320 416 320Z"/></svg>

<svg xmlns="http://www.w3.org/2000/svg" viewBox="0 0 576 512"><!--! Font Awesome Pro 6.0.0-alpha3 by @fontawesome - https://fontawesome.com License - https://fontawesome.com/license (Commercial License) --><path d="M288 64C39.52 64 0 182.1 0 273.5C0 379.5 78.8 448 176 448c27.33 0 51.21-6.516 66.11-36.79l19.93-40.5C268.3 358.6 278.1 352.4 288 352.1c9.9 .3711 19.7 6.501 25.97 18.63l19.93 40.5C348.8 441.5 372.7 448 400 448c97.2 0 176-68.51 176-174.5C576 182.1 536.5 64 288 64zM160 320c-35.35 0-64-28.65-64-64s28.65-64 64-64c35.35 0 64 28.65 64 64S195.3 320 160 320zM416 320c-35.35 0-64-28.65-64-64s28.65-64 64-64c35.35 0 64 28.65 64 64S451.3 320 416 320z"/></svg>
